X:169
T:Edinburgh Frolick. THO2.169
O:London
M:2/4
L:1/8
B:Thompson's Compleat Coll. of 200 Favourite Country Dances, vol.2,1765
Z:Transcribed and edited by Fynn Titford-Mock, 2007
Z:abc's:AK/Fiddler's Companion/VMP 2009
K:F
A/B/|cA FA/B/|cAfe|fdcA|TA2 GA/B/|cA FA/B/|cAfa|gfed|c2c:|
|:e/f/|ge ce/f/|ge b2|gecB|TB2 A>G|ATBcG|ATBcf|cBAG|F2 F:|

